X:1
T:Beautiful Christmas
T:Beautiful Christmas
T:Joseph Lincoln Hall
T:Joseph Lincoln Hall, 1900
T:Public Domain Courtesy of the Cyber Hymnal™
T:Public Domain Courtesy of the Cyber Hymnal™
C:Joseph Lincoln Hall
Z:Public Domain
Z:Courtesy of the Cyber Hymnal™
%%score ( 1 2 ) ( 3 4 )
L:1/8
Q:1/4=98
M:4/4
K:F
V:1 treble 
V:2 treble 
V:3 bass 
V:4 bass 
V:1
 [CF]2 D>[DE] [CF]2 C2 | [B,D]2 [B,G]>[B,F] [CF]2 [CE]2 | [CA]2 [^CA]>[CA] [DA]2 [D=c]>[DB] | %3
w: 1.~Beau- ti- ful Christ- mas,|wel- come thy com- ing,|Day filled with plea- sure and|
w: 2.~Beau- ti- ful Christ- mas,|bright day of glad- ness,|Glad- ly thy prais- es we|
w: 3.~Beau- ti- ful Christ- mas,|time of re- joic- ing,|Day when our hearts are a-|
 ([FA]4 [EG]4) | [Ec]2 [Gd]>[Ge] [Ff]2 [Fc]2 | [FA]2 [FB]>[Fc] [Fd]2 [GB]2 | %6
w: cheer; *|Jew- el the fair- est,|gem of the rar- est|
w: sing; *|Hail hap- py morn- ing,|wel- come thy dawn- ing,|
w: glow; *|Rich- est of trea- sure,|giv’n with- out mea- sure,|
 [FA]2 [EG]>[FA] [Ec]2 [CE]2 | [CF]6 z2 ||[M:6/8]!p! (z [A,C][A,C]) (z A,)[A,CF] x6 | z A,A, A,DE | %10
w: Crown- ing the gold- en|year.|||
w: Peace and good will to|bring.|* * * Wel-|* * * come the|
w: Free- ly dost thou be-|stow.|||
 z [A,C][A,C] (z A,)[A,CF] x2 | z [B,D][B,D][B,D][B,D][B,D] x5 | z [B,D][B,D] (z [B,D])[B,DG] | %13
w: |||
w: * * * day||* * * to|
w: |||
 z [A,D][A,D] (z A,A,) x4 |!f! z [A,^C][A,C] (z [A,CE][A,CE]) x2 | %15
w: ||
w: ||
w: ||
 z [A,D^F][A,DF][A,DF][A,DF][A,DF] x5 | z [B,DG][B,DG] (z [B,D])[B,DG] | %17
w: ||
w: |* * * our|
w: ||
 z [DFA][DFA] (z [DF][DF]) x4 | z [EG][EG] (z [^CE][CE]) x4 | z DD (z DD) | %20
w: |||
w: |* hearts * *||
w: |||
!ff! z [F^G=Bd][FGBd] z ([FGB][FGBd]) | (z [CFA])[CFA] FED | (z [B,C][B,C]) (z [G,B,][G,B,]) x4 | %23
w: |||
w: * * ev- *|* er dear, Day of||
w: |||
 z [A,C][^G,=B,] [A,CF]3 |] %24
w: |
w: |
w: |
V:2
 x2 D3/2 x C2 x3/2 | x8 | x8 | x8 | x8 | x8 | x8 | x8 ||[M:6/8] F3 D2 x7 | C4 x2 | F3 D2 x3 | %11
 G6 x5 | B3 A2 x | F3 D3 x4 | E2 A3 x3 | A6 x5 | B3 A2 x | d3 A3 x4 | B3 A3 x4 | G3 F3 | %20
 (f3 e2) x | (c2 F) ED x | E3 C3 x4 | F3- x3 |] %24
V:3
 [F,A,]2 [F,B,]>[F,B,] [F,A,]2 [F,A,]2 | [B,,F,]2 [G,,G,]>[G,,G,] [C,A,]2 [C,G,]2 | %2
 F,2 [E,G,]>[E,G,] [D,F,]2 [G,B,]>[G,B,] | C4 C4 | [B,C]2 [B,C]>[B,C] [A,C]2 [A,C]2 | %5
 [F,C]2 [G,C]>[A,C] B,2 [G,D]2 | [C,C]2 [C,C]>[C,C] [C,G,]2 [C,B,]2 | [F,A,]6 z2 || %8
[M:6/8] (F,- F,2) z x8 | (z [F,,C,])[D,F,] E, x2 | F,- F,2 (z [A,,F,]) x3 | G,6 (D,D,D,D,D,) | %12
 (z [D,G,][D,G,]) (z [D,G,])[D,G,] | z z x8 | (z z [E,G,] [E,G,]) x4 | z x10 | %16
 (z [D,G,][D,G,]) (z [D,G,])[D,G,] | z z x8 | z z x8 | (z [F,A,][F,A,]) (z [F,A,][F,A,]) | %20
 z [^F,G,=B,][F,G,B,] z ([F,G,B,][F,G,B,]) | (z [F,A,])[F,A,] F,E,D, | z z x8 | %23
 (F,- F,2) [F,,C,F,]2 x |] %24
V:4
 x8 | x8 | F,2 x6 | C,2 F,A, x4 | x8 | x4 B,2 x2 | x8 | x8 ||[M:6/8] F,,6 (C,C,) (D,2 F,)F, | %9
 [F,,C,]3 F, F, x | F,,3 (C,C,) ([F,,D,]2 F,) | (G,,- G,,2) G,,3 x5 | (G,,3 B,,3 | %13
 D,3 F,F,) (F,3 F,F,) | (E,3 G,G,) (A,,3 | D,6 ^F,F,F,F,F,) | (G,,3 B,,3 | D,3 A,A,) (D,3 A,A,) | %18
 ^C,3 G,G, (E,3 G,G,) | D,3 D,3 | (=B,,3 D,3) | (C,3 F,)E,D, | E,3 C,C, (C,3 E,E,) | %23
 F,,3- C,D, x |] %24

